!!!OTL: 37. Schlaf, du kleine Seele.
!!!ARE: Europa, Mitteleuropa, Deutschland, Brandenburg
!!!SCT: K0037
!!!TXL: @@DE
!!!YEM: Copyright 1995, estate of Helmut Schaffrath.
**kern	**text
*clefG2	*
*M6/8	*
*k[f#]	*
*G:	*
=1	=1
{8dL	Schlaf,
8gJ	.
8g	du
8gL	klei-
8aJ	.
8b	-ne
=2	=2
4.b	See-
4.a}	-le,
=3	=3
{8dL	ſchlaf
8aJ	.
8a	in
8a/L	gu-
8ddJ	.
8cc	-ter
=4	=4
(4.cc	Ruh!
4b)	.
8r}	.
=5	=5
{8dL	Schlummre
8gJ	.
8g	.
8gL	oh-
8aJ	.
8b	-ne
=6	=6
4.b	Feh-
4.a}	-le,
=7	=7
{8dL	thu
8aJ	.
8a	die
8a/L	Aug-
8ddJ	.
8cc	-lein
=8	=8
(4.cc	ʒu!
4b)	.
8r}	.
=9	=9
{4dd	Schlummre
8b	.
8bL	ſanft
8ccJ	.
8dd	und
=10	=10
4.cc	ſü-
4.a}	-ße,
=11	=11
{4cc	ru-
8a	-he
8aL	Händ
8bJ	.
8cc	und
=12	=12
4.b	Fü-
4.g}	-ße,
=13	=13
{8dL	auch
8gJ	.
8g	das
(8gL	Au-
8aJ)	.
8b	-ge-
=14	=14
(4.b	-lein
4.a)}	.
=15	=15
{8bL	muß
8ddJ	.
8b	geſchloſſen
8aL	.
8gJ	.
8a	.
=16	=16
4.g	ſein.
!LO:N:vis=4	!
4.r}	.
=17||	=17||
!LO:TX:a:t=Refr.	!
{8b	Biſſeken,
8dd	.
8b	.
8a	biſſeken
8cc	.
8a	.
=18	=18
8g	tralala-
8g	.
8g	.
4g	-la,
8r}	.
=19	=19
{8b	biſſeken,
8dd	.
8b	.
8a	biſſeken,
8cc	.
8a	.
=20	=20
4.g	bei.
4r	.
8r}	.
==	==
!!!AGN: Kinder -, Wiegen - Lied
!!!ONB: ESAC (Essen Associative Code) Database: KINDER
!!!AMT: compound duple
!!!AIN: vox
!!!EED: Helmut Schaffrath
!!!EEV: 1.0
!!!GTL: I. Wiegenlieder.
!!Dem Wickelkinde vorzusingen.
!!Aus dem Brandenburgischen: Jrmer Nr. 1.
!!@@COMMENT:"Aus dem Brandenburgiſchen: Jrmer, Volkslieder Nr. 1 (1840). * Die Ʒiſchlaute "Bſch, bſch, bſch!' ʒum Einſchläfern der Kleinen 
!!lähnlich ſuſe ninne) ſind auch in Thüringen und Sachſen gekannt, und nennt man Biſchekinder" oder Büſchekinnel alle 
!!Wickelkinder, und die Kinder einbiſchen heißt, ſie ʒum Schlaf bringen; dafür ſagt man in Schleſien piſchen, in Heſſen peſchen."
!!@@END:
!!!URL-scan: https://archive.org/details/DeutschesKinderliedUndKinderspiel/page/8/mode/1up
!!!ENC: Anna Maria Matuszewska
!!!EEV: 2024/29/08
*-	*-
